storage/app/icons/phosphoricons/duotone/scan-smiley-duotone.svg

<svg xmlns="http://www.w3.org/2000/svg" fill="currentColor" viewBox="0 0 256 256"><path d="M192 128a64 64 0 1 1-64-64 64 64 0 0 1 64 64" opacity=".2"/><path d="M224 40v36a8 8 0 0 1-16 0V48h-28a8 8 0 0 1 0-16h36a8 8 0 0 1 8 8m-8 132a8 8 0 0 0-8 8v28h-28a8 8 0 0 0 0 16h36a8 8 0 0 0 8-8v-36a8 8 0 0 0-8-8M76 208H48v-28a8 8 0 0 0-16 0v36a8 8 0 0 0 8 8h36a8 8 0 0 0 0-16M40 84a8 8 0 0 0 8-8V48h28a8 8 0 0 0 0-16H40a8 8 0 0 0-8 8v36a8 8 0 0 0 8 8m88 116a72 72 0 1 1 72-72 72.08 72.08 0 0 1-72 72m56-72a56 56 0 1 0-56 56 56.06 56.06 0 0 0 56-56m-68-12a12 12 0 1 0-12 12 12 12 0 0 0 12-12m36-12a12 12 0 1 0 12 12 12 12 0 0 0-12-12m-5.29 42c-3.81 3.37-12 6-18.71 6s-14.9-2.63-18.71-6a8 8 0 1 0-10.58 12c7.83 6.91 20.35 10 29.29 10s21.46-3.09 29.29-10a8 8 0 1 0-10.58-12"/></svg>

<svg xmlns="http://www.w3.org/2000/svg" viewBox="0 0 256 256" fill="currentColor"><path d="M192,128a64,64,0,1,1-64-64A64,64,0,0,1,192,128Z" opacity="0.2"/><path d="M224,40V76a8,8,0,0,1-16,0V48H180a8,8,0,0,1,0-16h36A8,8,0,0,1,224,40Zm-8,132a8,8,0,0,0-8,8v28H180a8,8,0,0,0,0,16h36a8,8,0,0,0,8-8V180A8,8,0,0,0,216,172ZM76,208H48V180a8,8,0,0,0-16,0v36a8,8,0,0,0,8,8H76a8,8,0,0,0,0-16ZM40,84a8,8,0,0,0,8-8V48H76a8,8,0,0,0,0-16H40a8,8,0,0,0-8,8V76A8,8,0,0,0,40,84Zm88,116a72,72,0,1,1,72-72A72.08,72.08,0,0,1,128,200Zm56-72a56,56,0,1,0-56,56A56.06,56.06,0,0,0,184,128Zm-68-12a12,12,0,1,0-12,12A12,12,0,0,0,116,116Zm36-12a12,12,0,1,0,12,12A12,12,0,0,0,152,104Zm-5.29,42c-3.81,3.37-12,6-18.71,6s-14.9-2.63-18.71-6a8,8,0,1,0-10.58,12c7.83,6.91,20.35,10,29.29,10s21.46-3.09,29.29-10a8,8,0,1,0-10.58-12Z"/></svg>
